icons/lines/smart-home.svg

<svg xmlns="http://www.w3.org/2000/svg" width="24" height="24" viewBox="0 0 24 24" fill="none" stroke="currentColor" stroke-width="2" stroke-linecap="round" stroke-linejoin="round" >
  <path d="M11.4003 21.8101H17.6003C19.0303 21.8101 20.4003 20.65 20.6403 19.24L21.9703 11.28C22.1303 10.3 21.6303 8.99002 20.8603 8.37002L13.9303 2.82998C12.8603 1.96998 11.1303 1.96997 10.0703 2.81997L3.14028 8.37002C2.36028 8.99002 1.86026 10.3 2.03026 11.28L2.31026 12.96"/>
  <path d="M2 19C3.76 19.04 4.96 20.24 5 22"/>
  <path d="M8 22C7.99 21.24 7.86 20.53 7.63 19.88C7.04 18.21 5.78 16.96 4.12 16.37C3.47 16.14 2.76 16.01 2 16"/>
  <path d="M1.9955 22H2.0045"/>
  </svg>

<svg xmlns="http://www.w3.org/2000/svg" width="24" height="24" viewBox="0 0 24 24" fill="none" stroke="currentColor" stroke-width="2" stroke-linecap="round" stroke-linejoin="round">
  <path d="M1.996 22h.01" />
  <path d="M11.4 21.81h6.2c1.43 0 2.8-1.16 3.04-2.57l1.33-7.96c.16-.98-.34-2.29-1.11-2.91l-6.93-5.54c-1.07-.86-2.8-.86-3.86-.01L3.14 8.37c-.78.62-1.28 1.93-1.11 2.91l.28 1.68" />
  <path d="M2 19c1.76.04 2.96 1.24 3 3" />
  <path d="M8 22a6.6 6.6 0 0 0-.37-2.12 5.69 5.69 0 0 0-3.51-3.51A6.6 6.6 0 0 0 2 16" />
</svg>
